X:15
T:Lisheen
Z: id:dc-slide-16
M:6/8
L:1/8
K:G Major
BcB BAB|G2B A2G|BcB BAG|A2B cBA|!
BcB BAB|G3 GBd|g2e dBG|A2B cBA:|!
g3 d3|ege d3|gfg aga|bab afd|!
g3 d3|ege d3|gfg aga|bgf g3:|!